-----BEGIN PGP PUBLIC KEY BLOCK-----

mQGNBF7AiRIBDAC7GFAQIbQjSlHzFK9gBxWx8Ufm8HdOBIh5t5Y63fwaC7br6+Et
kRnMxPvNjFKPXGlO6xtW1VwXtF7Gspn99B8j5uxROQU/XGN599AUlMfrrotUol+r
QvDDlBCwHVYK4jfPoYyptWe1RscWvtvkdi7vzx0MIQ177GgdMFTVUA68NStkZd6r
os3U3gQPFX+SXi5D9PyBwcJp5hl0XGoqITm7QStJIrhfGcCvMpkFMFt9xKKHpKtq
jxSo7u/S+C0g8I+rU4Q7kEuUY38BiO/LLXTvqvxe9U4q8FkkZFy9TI2vBa30z5Du
vIFTtvBvSCUexlqRXpM6Xp5zN8lZY7jj3pBn/AcVbH78PPofuEK3QdAuvYiekGZp
nZ6YQf17M+R9pB04pelVVWZRs6UNrIJlEqY3z/AbrhpyR5SxwMTzdv+AKyIm6Cw3
NKUIep0t4/KigOvH6nLWw/y/YFIA9BqGp25pxHhO2JwQmqd2iEPN7rU5ruiGZXou
PRD9UAkF3DCN9esAEQEAAbQrR2VyYXJkbyBPcmVsbGFuYSA8Z29hY2Nlc3NAcHJv
c29mdGNvcnAuY29tPokBzgQTAQoAOAIbAwULCQgHAgYVCgkICwIEFgIDAQIeAQIX
gBYhBMA7SIh9XlawRnFdMpe9GgEzRJw9BQJig6oiAAoJEJe9GgEzRJw9E4gL+QE1
5W8+Rnlb4K8+itTgga4Po5i+jrEeDg5Sl+KwHbsHhrFoOVQ8Iwo+IvrN4g3EllHW
dwp5fslOscmG5KPNoOgEtZ8uilOCMKxaitOEGZLeCu4ZGcd3eBdKTkXIjURwES5J
Cq5/20VmnWu8wDOz48qTqZWJF4lvuxso5rSW4z0AOsIAjy4+Svk5HHpFaw3ig075
iJVU4ajRKGGC2uOFyA/0W7gPw5RciTYN/2NP66af+3hWHTffSQcV2mrqKpcZ8x2s
ymIUVoDtDU2FlgKS5VqoVzdDkegSX1vzH9ydF20KuBpQeuBlnhN05INuoM80PYWs
KWTOCK0NTVr0V2HfIX+vrmAC+I1k/WHNeNKHAq15EcZbBqM2jzQEK+ua3LZ4OJxk
Sor6f5A3SfCauuV31x7YS8YFCHe6XfO3Ez6GvcDOdTakFJqJJujegtaV1Bjfhy77
55W53V/YJPji8kwTGdbCUAvfPhHUDYFr6/roLdZK9QJ8VURGC0KgrLm2lMnK8bkB
jQRewIkSAQwApUja9kuPLLvn30ZgyPuReTdvxzw0LTopbUOo8D/y3sSJiqDoOGM1
dRCj0XNauw+SEsK9ijqE3MRzFSpJnwQNgdWlz9u6bDBKi6bGVyqokP8DOcKMFVMZ
UbfXULy6n3QNhwqfrd4lzrN+wSALts32e8nxBBWUDrBM4rI3XwUeKV8Cdfr4C/qL
JlVmsk1fMDllnav4lWRNl9C+SxnDuSjDS+RA+A9x5V8DK5tsb0b+DtNaUv5vRJI/
D4rBmMGsKNsyQwhNXC5nYuYXKgGGFi2+lIxDRQg8BLSf6q+Isj6Rn9KR/WxCMhEl
7gpxDXyFi4z6DFb0Ne66heDboYjTuGKnv01GuwkxzHhVBmxj9IQX1HhTX1BL4xPS
v4a8HSKet64mFAdQDtQ7B4hD6q7Y3fkTeq4FzVS9TyC8ZcU7qtPC51hBjekwMpez
zhGPFFO4d+klRQFE+RT/UUUk927OMKZznJD0USwfq/gOS21wBVT/o2kuDyTWY24L
OJIqq4pl+ftpABEBAAGJAbYEGAEKACACGwwWIQTAO0iIfV5WsEZxXTKXvRoBM0Sc
PQUCYoOqMAAKCRCXvRoBM0ScPdvCC/wPtOU3BPbpMqIHaH79Eua3WEcS2JkmicGo
etq0AKd69B3Pd4iDHDZZPzbMd7mstRzlThR65pSlwrL40bL5kLc+RFe2oOYLIT6j
5Fgo3pw1S67lBCsKi4RAf+qdM7BUYFKjgDHipolQObHiDPViiruECppkwnQToWCF
rRluKcJagH94fRnXz7L38K78qEE/vjx5v+gEivILk6sgcDQxLfiREyAnYHsW1eWg
Giqu7YakSZ+8JNCv8xheTgJVoInP1Po+LOaS2odZF4JDvLWZI0ASO1yT0OVR5W4E
le8Jj/gWt87gqCzZgVU9fV0vaw4YKQurTSxX8GQMmOH5ip8OtOdBswuq6+TmeoOe
q8c0HiJrG1jAh/dXxNv8WVM9znCWfN62E40WCH0C6+q7/R1VFci/s5I/JsRHORMk
rrBJ5v1ZZTXLYGBY9uq43L3MuSrbf+00zlvbeSKNfSQoAkAbz8LuHf3o5fF7R+hF
V4Rsau84DimNcpqFjb+Cc1s/mDQXKCU=
=G+ZB
-----END PGP PUBLIC KEY BLOCK-----
